images/@funding/space_logo.svg

<?xml version="1.0" encoding="UTF-8"?>
<svg id="Ebene_1" xmlns="http://www.w3.org/2000/svg" version="1.1" viewBox="0 0 1417.3 286.3">
  <!-- Generator: Adobe Illustrator 29.8.1, SVG Export Plug-In . SVG Version: 2.1.1 Build 2)  -->
  <defs>
    <style>
      .st0 {
        fill: #eb611c;
      }
    </style>
  </defs>
  <path class="st0" d="M54.1,39.6l-.9,17.1c4.2-6.8,9.3-11.9,15.2-15.3,5.9-3.4,12.6-5.1,20.1-5.1,14.6,0,26.2,6.8,34.6,20.4,4.6-6.8,9.8-11.9,15.6-15.3,5.8-3.4,12.2-5.1,19.3-5.1s17,2.3,23.1,6.8c6.1,4.5,10,10.1,11.7,16.6,1.7,6.6,2.6,17.2,2.6,31.9v127.9h-53.2v-117.3c0-15.4-.5-24.9-1.6-28.5-1-3.7-3.5-5.5-7.3-5.5s-6.4,1.8-7.5,5.4c-1.1,3.6-1.7,13.2-1.7,28.6v117.3h-53.2v-114.3c0-17.6-.4-28.2-1.3-31.7-.9-3.5-3.2-5.3-7.1-5.3s-4.5.9-6.2,2.8c-1.7,1.9-2.7,4.1-2.8,6.8-.2,2.7-.3,8.3-.3,17v124.8H0V39.6h54.1Z"/>
  <path class="st0" d="M259.5,109.3h-51.4v-12.1c0-13.9,1.6-24.7,4.8-32.2,3.2-7.5,9.6-14.2,19.3-20,9.7-5.8,22.2-8.7,37.7-8.7s32.5,3.3,41.9,9.8c9.4,6.6,15.1,14.6,17,24.1,1.9,9.5,2.8,29.2,2.8,58.9v90.3h-53.3v-16c-3.3,6.4-7.7,11.3-13,14.5-5.3,3.2-11.6,4.8-18.9,4.8s-18.4-2.7-26.4-8.1c-8-5.4-12-17.2-12-35.3v-14.8c0-13.5,2.1-22.6,6.4-27.5,4.2-4.9,14.8-10.6,31.6-17.1,18-7.1,27.6-11.8,28.9-14.2,1.3-2.4,1.9-7.4,1.9-14.9s-.7-15.5-2.1-18.4c-1.4-2.8-3.7-4.3-7-4.3s-6,1.2-6.9,3.6c-.9,2.4-1.4,8.6-1.4,18.6v18.8ZM276.8,134c-8.8,6.4-13.9,11.8-15.3,16.1-1.4,4.3-2.1,10.6-2.1,18.7s.6,15.3,1.8,18c1.2,2.7,3.6,4.1,7.3,4.1s5.7-1.1,6.7-3.2c1-2.1,1.6-7.7,1.6-16.7v-37Z"/>
  <path class="st0" d="M464.8,39.6l-22.2,71.7,28.9,108.3h-52.7l-17.1-78.4v78.4h-54.9V0h54.8v92.2c0,0,17.2-52.6,17.2-52.6h46Z"/>
  <path class="st0" d="M600.1,132.8h-70.9v38.9c0,8.1.6,13.4,1.8,15.7,1.2,2.4,3.4,3.5,6.8,3.5s6.9-1.6,8.3-4.7c1.4-3.1,2.1-9.2,2.1-18.1v-23.7h51.9v13.3c0,11.1-.7,19.7-2.1,25.6-1.4,6-4.7,12.3-9.8,19.1-5.2,6.8-11.7,11.9-19.6,15.3-7.9,3.4-17.8,5.1-29.8,5.1s-21.8-1.7-30.6-5c-8.9-3.3-15.8-7.9-20.7-13.8-4.9-5.8-8.3-12.2-10.2-19.3-1.9-7-2.8-17.2-2.8-30.6v-52.5c0-15.7,2.1-28.1,6.4-37.2,4.2-9.1,11.2-16,20.9-20.9,9.7-4.8,20.8-7.3,33.4-7.3s28,2.9,38,8.7c10,5.8,17,13.6,21,23.2,4,9.6,6,23.2,6,40.6v23.9ZM545.2,103.5v-13.2c0-9.3-.5-15.3-1.5-18-1-2.7-3-4.1-6.1-4.1s-6.1,1.2-7.1,3.5c-.9,2.3-1.4,8.5-1.4,18.6v13.2h16Z"/>
  <path class="st0" d="M669.1,39.6l-2.2,23.7c8-16.9,19.5-25.9,34.6-26.9v63.3c-10,0-17.4,1.4-22.1,4.1-4.7,2.7-7.6,6.5-8.7,11.3-1.1,4.8-1.6,16-1.6,33.4v71.1h-54.8V39.6h54.8Z"/>
  <path class="st0" d="M867.4,97.1h-48.5v-9.8c0-8.3-.5-13.6-1.4-15.8-.9-2.2-3.3-3.3-7.1-3.3s-5.4,1-6.9,3.1c-1.5,2-2.3,5.1-2.3,9.2s.4,9.6,1.2,12.1c.8,2.6,3.1,5.4,6.9,8.5,3.8,3.1,11.7,7.5,23.7,13.4,15.9,7.8,26.4,15.1,31.3,22,5,6.9,7.5,16.9,7.5,30s-1.9,25.7-5.7,33.2c-3.8,7.5-10.1,13.2-19.1,17.2-8.9,4-19.6,6-32.2,6s-25.8-2.2-35.7-6.5c-9.9-4.3-16.7-10.2-20.4-17.6-3.7-7.4-5.6-18.6-5.6-33.6v-8.7h48.5v11.4c0,9.7.6,16,1.8,18.8,1.2,2.9,3.6,4.3,7.3,4.3s6.6-1,8.1-2.9c1.5-1.9,2.3-6,2.3-12.3s-1-14-3-16.1c-2.1-2.2-12.7-8.6-31.9-19.3-16.1-9-25.9-17.2-29.4-24.6-3.5-7.4-5.3-16.1-5.3-26.2,0-14.4,1.9-25,5.7-31.8,3.8-6.8,10.2-12.1,19.3-15.8,9.1-3.7,19.6-5.6,31.7-5.6s22.1,1.5,30.4,4.5c8.4,3,14.8,7,19.3,12,4.5,5,7.2,9.6,8.1,13.8.9,4.3,1.4,10.9,1.4,19.9v10.4Z"/>
  <path class="st0" d="M938.3,39.6l-.9,15.9c4.9-6.4,10.3-11.2,16.1-14.4,5.9-3.2,12.3-4.8,19.3-4.8s15.8,2.3,22,6.8c6.2,4.6,10.1,9.8,11.6,15.8,1.5,6,2.3,16.1,2.3,30.4v75.8c0,16.4-1,28-2.9,34.9-1.9,6.9-5.9,12.4-11.9,16.5-6,4.1-13.3,6.2-21.8,6.2s-13.1-1.6-18.8-4.8c-5.8-3.2-11.1-7.9-15.9-14.1v41.3h-54.8V39.6h55.7ZM953.9,91.9c0-11.1-.4-17.9-1.2-20.2-.8-2.3-3.1-3.5-6.8-3.5s-5.9,1.4-7,4.1c-1,2.7-1.6,9.3-1.6,19.7v74.6c0,10.8.5,17.6,1.6,20.3,1.1,2.7,3.4,4.1,7.1,4.1s5.7-1.2,6.6-3.7c.9-2.5,1.3-8.5,1.3-18.1v-77.2Z"/>
  <path class="st0" d="M1072.1,109.3h-51.4v-12.1c0-13.9,1.6-24.7,4.8-32.2,3.2-7.5,9.6-14.2,19.3-20,9.7-5.8,22.2-8.7,37.7-8.7s32.5,3.3,41.9,9.8c9.4,6.6,15.1,14.6,17,24.1,1.9,9.5,2.8,29.2,2.8,58.9v90.3h-53.3v-16c-3.3,6.4-7.7,11.3-13,14.5-5.3,3.2-11.6,4.8-18.9,4.8s-18.4-2.7-26.4-8.1c-8-5.4-12-17.2-12-35.3v-14.8c0-13.5,2.1-22.6,6.4-27.5,4.2-4.9,14.8-10.6,31.6-17.1,18-7.1,27.6-11.8,28.9-14.2,1.3-2.4,1.9-7.4,1.9-14.9s-.7-15.5-2.1-18.4c-1.4-2.8-3.7-4.3-7-4.3s-6,1.2-6.9,3.6c-.9,2.4-1.4,8.6-1.4,18.6v18.8ZM1089.5,134c-8.8,6.4-13.9,11.8-15.3,16.1-1.4,4.3-2.1,10.6-2.1,18.7s.6,15.3,1.8,18c1.2,2.7,3.6,4.1,7.3,4.1s5.7-1.1,6.7-3.2c1-2.1,1.6-7.7,1.6-16.7v-37Z"/>
  <path class="st0" d="M1280.6,107.5h-51.7v-20.7c0-7.2-.6-12.1-1.8-14.7-1.2-2.6-3.3-3.9-6.5-3.9s-5.3,1.1-6.4,3.4c-1.1,2.3-1.6,7.3-1.6,15.2v84.9c0,6.4.8,11.2,2.4,14.4,1.6,3.2,4,4.8,7.2,4.8s6.2-1.7,7.5-5c1.3-3.3,2-9.7,2-19v-21.4h48.8c0,14.4-.6,25.2-1.6,32.3-.9,7.2-4,14.6-9.1,22.1-5.1,7.5-11.8,13.2-20,17.1-8.2,3.8-18.4,5.8-30.5,5.8s-27.7-2.6-36.7-7.9c-9-5.3-15.4-12.7-19.2-22.2-3.8-9.5-5.6-23.1-5.6-40.6v-51.1c0-15.3,1.5-26.8,4.6-34.6,3.1-7.8,9.6-14.7,19.7-20.8,10-6.1,22.2-9.2,36.6-9.2s26.5,3,36.6,9.1c10.1,6.1,16.9,13.7,20.2,22.9,3.3,9.2,5,22.3,5,39.2Z"/>
  <path class="st0" d="M1417.3,132.8h-70.9v38.9c0,8.1.6,13.4,1.8,15.7,1.2,2.4,3.4,3.5,6.8,3.5s6.9-1.6,8.3-4.7c1.4-3.1,2.1-9.2,2.1-18.1v-23.7h51.9v13.3c0,11.1-.7,19.7-2.1,25.6-1.4,6-4.7,12.3-9.8,19.1-5.2,6.8-11.7,11.9-19.6,15.3-7.9,3.4-17.8,5.1-29.8,5.1s-21.8-1.7-30.6-5c-8.9-3.3-15.8-7.9-20.7-13.8-4.9-5.8-8.3-12.2-10.2-19.3-1.9-7-2.8-17.2-2.8-30.6v-52.5c0-15.7,2.1-28.1,6.4-37.2,4.2-9.1,11.2-16,20.9-20.9,9.7-4.8,20.8-7.3,33.4-7.3s28,2.9,38,8.7c10,5.8,17,13.6,21,23.2,4,9.6,6,23.2,6,40.6v23.9ZM1362.4,103.5v-13.2c0-9.3-.5-15.3-1.5-18-1-2.7-3-4.1-6.1-4.1s-6.1,1.2-7.1,3.5c-.9,2.3-1.4,8.5-1.4,18.6v13.2h16Z"/>
  <rect class="st0" x="700" y="242.5" width="40.5" height="43.8"/>
</svg>

<?xml version="1.0" encoding="UTF-8" standalone="no"?>
<!DOCTYPE svg PUBLIC "-//W3C//DTD SVG 1.1//EN" "http://www.w3.org/Graphics/SVG/1.1/DTD/svg11.dtd">
<svg width="100%" height="100%" viewBox="0 0 1600 350" version="1.1" xmlns="http://www.w3.org/2000/svg" xmlns:xlink="http://www.w3.org/1999/xlink" xml:space="preserve" xmlns:serif="http://www.serif.com/" style="fill-rule:evenodd;clip-rule:evenodd;stroke-linejoin:round;stroke-miterlimit:2;">
    <g transform="matrix(1,0,0,1,91.35,31.85)">
        <path d="M54.1,39.6L53.2,56.7C57.4,49.9 62.5,44.8 68.4,41.4C74.3,38 81,36.3 88.5,36.3C103.1,36.3 114.7,43.1 123.1,56.7C127.7,49.9 132.9,44.8 138.7,41.4C144.5,38 150.9,36.3 158,36.3C165.1,36.3 175,38.6 181.1,43.1C187.2,47.6 191.1,53.2 192.8,59.7C194.5,66.3 195.4,76.9 195.4,91.6L195.4,219.5L142.2,219.5L142.2,102.2C142.2,86.8 141.7,77.3 140.6,73.7C139.6,70 137.1,68.2 133.3,68.2C129.5,68.2 126.9,70 125.8,73.6C124.7,77.2 124.1,86.8 124.1,102.2L124.1,219.5L70.9,219.5L70.9,105.2C70.9,87.6 70.5,77 69.6,73.5C68.7,70 66.4,68.2 62.5,68.2C58.6,68.2 58,69.1 56.3,71C54.6,72.9 53.6,75.1 53.5,77.8C53.3,80.5 53.2,86.1 53.2,94.8L53.2,219.6L0,219.6L0,39.6L54.1,39.6Z" style="fill:rgb(235,97,28);fill-rule:nonzero;"/>
    </g>
    <g transform="matrix(1,0,0,1,91.35,31.85)">
        <path d="M259.5,109.3L208.1,109.3L208.1,97.2C208.1,83.3 209.7,72.5 212.9,65C216.1,57.5 222.5,50.8 232.2,45C241.9,39.2 254.4,36.3 269.9,36.3C285.4,36.3 302.4,39.6 311.8,46.1C321.2,52.7 326.9,60.7 328.8,70.2C330.7,79.7 331.6,99.4 331.6,129.1L331.6,219.4L278.3,219.4L278.3,203.4C275,209.8 270.6,214.7 265.3,217.9C260,221.1 253.7,222.7 246.4,222.7C239.1,222.7 228,220 220,214.6C212,209.2 208,197.4 208,179.3L208,164.5C208,151 210.1,141.9 214.4,137C218.6,132.1 229.2,126.4 246,119.9C264,112.8 273.6,108.1 274.9,105.7C276.2,103.3 276.8,98.3 276.8,90.8C276.8,83.3 276.1,75.3 274.7,72.4C273.3,69.6 271,68.1 267.7,68.1C264.4,68.1 261.7,69.3 260.8,71.7C259.9,74.1 259.4,80.3 259.4,90.3L259.4,109.1L259.5,109.3ZM276.8,134C268,140.4 262.9,145.8 261.5,150.1C260.1,154.4 259.4,160.7 259.4,168.8C259.4,176.9 260,184.1 261.2,186.8C262.4,189.5 264.8,190.9 268.5,190.9C272.2,190.9 274.2,189.8 275.2,187.7C276.2,185.6 276.8,180 276.8,171L276.8,134Z" style="fill:rgb(235,97,28);fill-rule:nonzero;"/>
    </g>
    <g transform="matrix(1,0,0,1,91.35,31.85)">
        <path d="M464.8,39.6L442.6,111.3L471.5,219.6L418.8,219.6L401.7,141.2L401.7,219.6L346.8,219.6L346.8,0L401.6,0L401.6,92.2L418.8,39.6L464.8,39.6Z" style="fill:rgb(235,97,28);fill-rule:nonzero;"/>
    </g>
    <g transform="matrix(1,0,0,1,91.35,31.85)">
        <path d="M600.1,132.8L529.2,132.8L529.2,171.7C529.2,179.8 529.8,185.1 531,187.4C532.2,189.8 534.4,190.9 537.8,190.9C541.2,190.9 544.7,189.3 546.1,186.2C547.5,183.1 548.2,177 548.2,168.1L548.2,144.4L600.1,144.4L600.1,157.7C600.1,168.8 599.4,177.4 598,183.3C596.6,189.3 593.3,195.6 588.2,202.4C583,209.2 576.5,214.3 568.6,217.7C560.7,221.1 550.8,222.8 538.8,222.8C526.8,222.8 517,221.1 508.2,217.8C499.3,214.5 492.4,209.9 487.5,204C482.6,198.2 479.2,191.8 477.3,184.7C475.4,177.7 474.5,167.5 474.5,154.1L474.5,101.6C474.5,85.9 476.6,73.5 480.9,64.4C485.1,55.3 492.1,48.4 501.8,43.5C511.5,38.7 522.6,36.2 535.2,36.2C547.8,36.2 563.2,39.1 573.2,44.9C583.2,50.7 590.2,58.5 594.2,68.1C598.2,77.7 600.2,91.3 600.2,108.7L600.2,132.6L600.1,132.8ZM545.2,103.5L545.2,90.3C545.2,81 544.7,75 543.7,72.3C542.7,69.6 540.7,68.2 537.6,68.2C534.5,68.2 531.5,69.4 530.5,71.7C529.6,74 529.1,80.2 529.1,90.3L529.1,103.5L545.2,103.5Z" style="fill:rgb(235,97,28);fill-rule:nonzero;"/>
    </g>
    <g transform="matrix(1,0,0,1,91.35,31.85)">
        <path d="M669.1,39.6L666.9,63.3C674.9,46.4 686.4,37.4 701.5,36.4L701.5,99.7C691.5,99.7 684.1,101.1 679.4,103.8C674.7,106.5 671.8,110.3 670.7,115.1C669.6,119.9 669.1,131.1 669.1,148.5L669.1,219.6L614.3,219.6L614.3,39.6L669.1,39.6Z" style="fill:rgb(235,97,28);fill-rule:nonzero;"/>
    </g>
    <g transform="matrix(1,0,0,1,91.35,31.85)">
        <path d="M867.4,97.1L818.9,97.1L818.9,87.3C818.9,79 818.4,73.7 817.5,71.5C816.6,69.3 814.2,68.2 810.4,68.2C806.6,68.2 805,69.2 803.5,71.3C802,73.3 801.2,76.4 801.2,80.5C801.2,84.6 801.6,90.1 802.4,92.6C803.2,95.2 805.5,98 809.3,101.1C813.1,104.2 821,108.6 833,114.5C848.9,122.3 859.4,129.6 864.3,136.5C869.3,143.4 871.8,153.4 871.8,166.5C871.8,179.6 869.9,192.2 866.1,199.7C862.3,207.2 856,212.9 847,216.9C838.1,220.9 827.4,222.9 814.8,222.9C802.2,222.9 789,220.7 779.1,216.4C769.2,212.1 762.4,206.2 758.7,198.8C755,191.4 753.1,180.2 753.1,165.2L753.1,156.5L801.6,156.5L801.6,167.9C801.6,177.6 802.2,183.9 803.4,186.7C804.6,189.6 807,191 810.7,191C814.4,191 817.3,190 818.8,188.1C820.3,186.2 821.1,182.1 821.1,175.8C821.1,169.5 820.1,161.8 818.1,159.7C816,157.5 805.4,151.1 786.2,140.4C770.1,131.4 760.3,123.2 756.8,115.8C753.3,108.4 751.5,99.7 751.5,89.6C751.5,75.2 753.4,64.6 757.2,57.8C761,51 767.4,45.7 776.5,42C785.6,38.3 796.1,36.4 808.2,36.4C820.3,36.4 830.3,37.9 838.6,40.9C847,43.9 853.4,47.9 857.9,52.9C862.4,57.9 865.1,62.5 866,66.7C866.9,71 867.4,77.6 867.4,86.6L867.4,97.1Z" style="fill:rgb(235,97,28);fill-rule:nonzero;"/>
    </g>
    <g transform="matrix(1,0,0,1,91.35,31.85)">
        <path d="M938.3,39.6L937.4,55.5C942.3,49.1 947.7,44.3 953.5,41.1C959.4,37.9 965.8,36.3 972.8,36.3C979.8,36.3 988.6,38.6 994.8,43.1C1001,47.7 1004.9,52.9 1006.4,58.9C1007.9,64.9 1008.7,75 1008.7,89.3L1008.7,165.1C1008.7,181.5 1007.7,193.1 1005.8,200C1003.9,206.9 999.9,212.4 993.9,216.5C987.9,220.6 980.6,222.7 972.1,222.7C963.6,222.7 959,221.1 953.3,217.9C947.5,214.7 942.2,210 937.4,203.8L937.4,245.1L882.6,245.1L882.6,39.6L938.3,39.6ZM953.9,91.9C953.9,80.8 953.5,74 952.7,71.7C951.9,69.4 949.6,68.2 945.9,68.2C942.2,68.2 940,69.6 938.9,72.3C937.9,75 937.3,81.6 937.3,92L937.3,166.6C937.3,177.4 937.8,184.2 938.9,186.9C940,189.6 942.3,191 946,191C949.7,191 951.7,189.8 952.6,187.3C953.5,184.8 953.9,178.8 953.9,169.2L953.9,91.9Z" style="fill:rgb(235,97,28);fill-rule:nonzero;"/>
    </g>
    <g transform="matrix(1,0,0,1,91.35,31.85)">
        <path d="M1072.1,109.3L1020.7,109.3L1020.7,97.2C1020.7,83.3 1022.3,72.5 1025.5,65C1028.7,57.5 1035.1,50.8 1044.8,45C1054.5,39.2 1067,36.3 1082.5,36.3C1098,36.3 1115,39.6 1124.4,46.1C1133.8,52.7 1139.5,60.7 1141.4,70.2C1143.3,79.7 1144.2,99.4 1144.2,129.1L1144.2,219.4L1090.9,219.4L1090.9,203.4C1087.6,209.8 1083.2,214.7 1077.9,217.9C1072.6,221.1 1066.3,222.7 1059,222.7C1051.7,222.7 1040.6,220 1032.6,214.6C1024.6,209.2 1020.6,197.4 1020.6,179.3L1020.6,164.5C1020.6,151 1022.7,141.9 1027,137C1031.2,132.1 1041.8,126.4 1058.6,119.9C1076.6,112.8 1086.2,108.1 1087.5,105.7C1088.8,103.3 1089.4,98.3 1089.4,90.8C1089.4,83.3 1088.7,75.3 1087.3,72.4C1085.9,69.6 1083.6,68.1 1080.3,68.1C1077,68.1 1074.3,69.3 1073.4,71.7C1072.5,74.1 1072,80.3 1072,90.3L1072,109.1L1072.1,109.3ZM1089.5,134C1080.7,140.4 1075.6,145.8 1074.2,150.1C1072.8,154.4 1072.1,160.7 1072.1,168.8C1072.1,176.9 1072.7,184.1 1073.9,186.8C1075.1,189.5 1077.5,190.9 1081.2,190.9C1084.9,190.9 1086.9,189.8 1087.9,187.7C1088.9,185.6 1089.5,180 1089.5,171L1089.5,134Z" style="fill:rgb(235,97,28);fill-rule:nonzero;"/>
    </g>
    <g transform="matrix(1,0,0,1,91.35,31.85)">
        <path d="M1280.6,107.5L1228.9,107.5L1228.9,86.8C1228.9,79.6 1228.3,74.7 1227.1,72.1C1225.9,69.5 1223.8,68.2 1220.6,68.2C1217.4,68.2 1215.3,69.3 1214.2,71.6C1213.1,73.9 1212.6,78.9 1212.6,86.8L1212.6,171.7C1212.6,178.1 1213.4,182.9 1215,186.1C1216.6,189.3 1219,190.9 1222.2,190.9C1225.4,190.9 1228.4,189.2 1229.7,185.9C1231,182.6 1231.7,176.2 1231.7,166.9L1231.7,145.5L1280.5,145.5C1280.5,159.9 1279.9,170.7 1278.9,177.8C1278,185 1274.9,192.4 1269.8,199.9C1264.7,207.4 1258,213.1 1249.8,217C1241.6,220.8 1231.4,222.8 1219.3,222.8C1207.2,222.8 1191.6,220.2 1182.6,214.9C1173.6,209.6 1167.2,202.2 1163.4,192.7C1159.6,183.2 1157.8,169.6 1157.8,152.1L1157.8,101C1157.8,85.7 1159.3,74.2 1162.4,66.4C1165.5,58.6 1172,51.7 1182.1,45.6C1192.1,39.5 1204.3,36.4 1218.7,36.4C1233.1,36.4 1245.2,39.4 1255.3,45.5C1265.4,51.6 1272.2,59.2 1275.5,68.4C1278.8,77.6 1280.5,90.7 1280.5,107.6L1280.6,107.5Z" style="fill:rgb(235,97,28);fill-rule:nonzero;"/>
    </g>
    <g transform="matrix(1,0,0,1,91.35,31.85)">
        <path d="M1417.3,132.8L1346.4,132.8L1346.4,171.7C1346.4,179.8 1347,185.1 1348.2,187.4C1349.4,189.8 1351.6,190.9 1355,190.9C1358.4,190.9 1361.9,189.3 1363.3,186.2C1364.7,183.1 1365.4,177 1365.4,168.1L1365.4,144.4L1417.3,144.4L1417.3,157.7C1417.3,168.8 1416.6,177.4 1415.2,183.3C1413.8,189.3 1410.5,195.6 1405.4,202.4C1400.2,209.2 1393.7,214.3 1385.8,217.7C1377.9,221.1 1368,222.8 1356,222.8C1344,222.8 1334.2,221.1 1325.4,217.8C1316.5,214.5 1309.6,209.9 1304.7,204C1299.8,198.2 1296.4,191.8 1294.5,184.7C1292.6,177.7 1291.7,167.5 1291.7,154.1L1291.7,101.6C1291.7,85.9 1293.8,73.5 1298.1,64.4C1302.3,55.3 1309.3,48.4 1319,43.5C1328.7,38.7 1339.8,36.2 1352.4,36.2C1365,36.2 1380.4,39.1 1390.4,44.9C1400.4,50.7 1407.4,58.5 1411.4,68.1C1415.4,77.7 1417.4,91.3 1417.4,108.7L1417.4,132.6L1417.3,132.8ZM1362.4,103.5L1362.4,90.3C1362.4,81 1361.9,75 1360.9,72.3C1359.9,69.6 1357.9,68.2 1354.8,68.2C1351.7,68.2 1348.7,69.4 1347.7,71.7C1346.8,74 1346.3,80.2 1346.3,90.3L1346.3,103.5L1362.4,103.5Z" style="fill:rgb(235,97,28);fill-rule:nonzero;"/>
    </g>
    <g transform="matrix(1,0,0,1,91.35,31.85)">
        <rect x="700" y="242.5" width="40.5" height="43.8" style="fill:rgb(235,97,28);"/>
    </g>
</svg>
